X:184
T:Duke of Leinster
M:C
L:1/8
K:G
"G"G3 B dB B2|dBeB "D"dBAB|"G"GB B2 dB B2|"D"dBAB "C"GEDE|
"G"G2 B dB B2|dBeB "D"dBAB|"G"GABd "C"g3 e|"D"dBAB "C"GE E2:|
"G"dega bg g2|agbg ageg|dega bage|"D"dBAB "C"GE E2|
"G"dega bg g2|bgbg ageg|bgag "C"efge|"D"dBAB "C"GEDE:|
